Hatter-kde-dark/actions/22/irc-voice.svg

<svg xmlns="http://www.w3.org/2000/svg" viewBox="0 0 22 22">
  <defs id="defs3051">
    <style type="text/css" id="current-color-scheme">
      .ColorScheme-Text {
        color:#dedede;
      }
      </style>
  </defs>
 <path 
     style="fill:currentColor;fill-opacity:1;stroke:none" 
     d="M 15 4 L 3 7.4179688 L 3 8.4609375 L 3 13 L 3 13.582031 L 4 13.867188 L 4 16 L 4 16.300781 L 10 18 L 10 17 L 10 15.576172 L 15 17 L 15 15.957031 L 15 5.0429688 L 15 4 z M 19.029297 4.4277344 L 18.257812 5.0585938 C 19.395072 6.8308338 19.99974 8.8922969 20 10.998047 C 19.996 13.101927 19.38858 15.160517 18.25 16.929688 L 19.033203 17.572266 C 20.314753 15.619026 20.99831 13.334187 21 10.998047 C 20.996 8.6628469 20.311497 6.3794244 19.029297 4.4277344 z M 14 5.328125 L 14 15.671875 L 4 12.824219 L 4 8.1757812 L 14 5.328125 z M 16.689453 6.34375 L 15.908203 6.9824219 C 16.619993 8.2012119 16.99667 9.5866269 17 10.998047 C 16.998 12.409947 16.621596 13.796065 15.910156 15.015625 L 16.691406 15.65625 C 17.544636 14.25208 17.99719 12.641117 18 10.998047 C 17.996 9.3561169 17.542683 7.74659 16.689453 6.34375 z M 2 7.703125 L 1 7.9882812 L 1 8 L 1 9 L 1 12 L 1 13 L 1 13.011719 L 2 13.296875 L 2 13 L 2 12.253906 L 2 8.7460938 L 2 8 L 2 7.703125 z M 5 14.152344 L 9 15.291016 L 9 16.716797 L 5 15.583984 L 5 14.152344 z "
     class="ColorScheme-Text"
     />
</svg>

<?xml version="1.0" encoding="UTF-8"?>
<svg viewBox="0 0 22 22" xmlns="http://www.w3.org/2000/svg">
 <defs id="defs3051">
  <style id="current-color-scheme" type="text/css">.ColorScheme-Text {
        color:#dedede;
      }</style>
 </defs>
 <path class="ColorScheme-Text" d="m15 4-12 3.418v1.043 4.5391 0.58203l1 0.28516v2.1328 0.30078l6 1.6992v-1-1.4238l5 1.4238v-1.043-10.914-1.043zm4.0293 0.42773-0.77148 0.63086c1.1373 1.7722 1.7419 3.8337 1.7422 5.9395-4e-3 2.1039-0.61142 4.1625-1.75 5.9316l0.7832 0.64258c1.2816-1.9532 1.9651-4.2381 1.9668-6.5742-4e-3 -2.3352-0.6885-4.6186-1.9707-6.5703zm-5.0293 0.90039v10.344l-10-2.8477v-4.6484l10-2.8477zm2.6895 1.0156-0.78125 0.63867c0.71179 1.2188 1.0885 2.6042 1.0918 4.0156-2e-3 1.4119-0.3784 2.798-1.0898 4.0176l0.78125 0.64062c0.85323-1.4042 1.3058-3.0151 1.3086-4.6582-4e-3 -1.6419-0.45732-3.2515-1.3105-4.6543zm-14.689 1.3594-1 0.28516v0.011719 1 3 1 0.011719l1 0.28516v-0.29688-0.74609-3.5078-0.74609-0.29688zm3 6.4492 4 1.1387v1.4258l-4-1.1328v-1.4316z" fill="currentColor"/>
</svg>
